src/assets/filled/Additem.svg

<svg width="24" height="24" viewBox="0 0 24 24"  xmlns="http://www.w3.org/2000/svg">
<path d="M13.43 5.43V6.77C10.81 6.98 9.32 8.66 9.32 11.43V16H5.43C3.14 16 2 14.86 2 12.57V5.43C2 3.14 3.14 2 5.43 2H10C12.29 2 13.43 3.14 13.43 5.43Z" />
<path d="M18.5701 8H14.0001C11.7101 8 10.5701 9.14 10.5701 11.43V18.57C10.5701 20.86 11.7101 22 14.0001 22H18.5701C20.8601 22 22.0001 20.86 22.0001 18.57V11.43C22.0001 9.14 20.8601 8 18.5701 8ZM18.1301 15.75H17.2501V16.63C17.2501 17.04 16.9101 17.38 16.5001 17.38C16.0901 17.38 15.7501 17.04 15.7501 16.63V15.75H14.8701C14.4601 15.75 14.1201 15.41 14.1201 15C14.1201 14.59 14.4601 14.25 14.8701 14.25H15.7501V13.37C15.7501 12.96 16.0901 12.62 16.5001 12.62C16.9101 12.62 17.2501 12.96 17.2501 13.37V14.25H18.1301C18.5401 14.25 18.8801 14.59 18.8801 15C18.8801 15.41 18.5401 15.75 18.1301 15.75Z" />
</svg>

<?xml version="1.0" encoding="UTF-8"?>
<svg width="24" height="24" viewBox="0 0 24 24" xmlns="http://www.w3.org/2000/svg">
 <path d="M13.43 5.43V6.77C10.81 6.98 9.32 8.66 9.32 11.43V16H5.43C3.14 16 2 14.86 2 12.57V5.43C2 3.14 3.14 2 5.43 2H10C12.29 2 13.43 3.14 13.43 5.43Z"/>
 <path d="m18.57 8h-4.57c-2.29 0-3.43 1.14-3.43 3.43v7.14c0 2.29 1.14 3.43 3.43 3.43h4.57c2.29 0 3.43-1.14 3.43-3.43v-7.14c0-2.29-1.14-3.43-3.43-3.43zm-0.44 7.75h-0.88v0.88c0 0.41-0.34 0.75-0.75 0.75s-0.75-0.34-0.75-0.75v-0.88h-0.88c-0.41 0-0.75-0.34-0.75-0.75s0.34-0.75 0.75-0.75h0.88v-0.88c0-0.41 0.34-0.75 0.75-0.75s0.75 0.34 0.75 0.75v0.88h0.88c0.41 0 0.75 0.34 0.75 0.75s-0.34 0.75-0.75 0.75z"/>
</svg>
